X:1370
T:The Ivy Leaf
R:Reel
N:1st Setting
N:Collected by J. O'Neill
B:O'Neill's 1370
Z:Transcribed by Trish O'Neil
M:C|
L:1/8
K:A
A2ed cdec|A2ec dBGB|A2ed cdef|1agfge dBGB:|2gedB cA"H"A2||
eaag edef|agfge dBGB|eaag edez|EEED EFGB|
eaag edef|agfge dBGB|AcBd cedf|egfa ged"D.C."B|]
